engine-ui/packages/console-ui/dist/public/rdos/img/icon/code.svg

<?xml version="1.0" standalone="no"?><!DOCTYPE svg PUBLIC "-//W3C//DTD SVG 1.1//EN" "http://www.w3.org/Graphics/SVG/1.1/DTD/svg11.dtd"><svg t="1493274080772" class="icon" style="" viewBox="0 0 1024 1024" version="1.1" xmlns="http://www.w3.org/2000/svg" p-id="3074" xmlns:xlink="http://www.w3.org/1999/xlink" width="200" height="200"><defs><style type="text/css"></style></defs><path d="M432.455339 659.004075l-179.154309-82.670861 0-0.998747 179.154309-83.219353 0-51.744501L188.163497 559.601134l0 31.438013 244.292865 119.226428L432.456363 659.004075zM572.873416 364.290867l-43.26027 0-78.902024 366.280174 43.252083 0L572.873416 364.290867zM837.447187 552.993646 592.72044 440.370613l0 50.238195 195.407482 84.197634 0 1.027399-195.407482 84.197634 0 50.233078L837.447187 597.663008 837.447187 552.993646zM66.292845 76.660984l0 813.038264 893.040343 0L959.333188 76.660984 66.292845 76.660984zM811.163567 129.018445l80.782861 0 0 79.555917-80.782861 0L811.163567 129.018445zM678.266791 129.018445l80.741929 0 0 79.555917-80.741929 0L678.266791 129.018445zM537.475208 129.018445l80.782861 0 0 79.555917L537.475208 208.574363 537.475208 129.018445zM900.522758 827.40753 125.06746 827.40753 125.06746 282.473443l775.455297 0L900.522758 827.40753z" p-id="3075"></path></svg>

<svg class="icon" viewBox="0 0 1024 1024" xmlns="http://www.w3.org/2000/svg" width="200" height="200"><defs><style/></defs><path d="M432.455 659.004l-179.154-82.67v-1l179.154-83.219v-51.744L188.163 559.6v31.438l244.293 119.227v-51.262zm140.418-294.713h-43.26l-78.902 366.28h43.252l78.91-366.28zm264.574 188.703L592.72 440.37v50.238l195.408 84.197v1.028L592.72 660.03v50.234l244.727-112.602v-44.67zM66.293 76.66v813.038h893.04V76.661H66.293zm744.87 52.357h80.783v79.556h-80.782v-79.556zm-132.896 0h80.742v79.556h-80.742v-79.556zm-140.792 0h80.783v79.556h-80.783v-79.556zm363.048 698.39H125.067V282.473h775.456v544.935z"/></svg>
